X: 37306
T: Skydiving
R: waltz
M: 3/4
K: Amajor
|:E"E7"AB|"A"c2 (3cde AB|"D"F2FA A2|"C#m7"E2EA A2|"Bm7"D4 ED|"A/C#"C2CD "D"(3EDC|"Bm/E"D2 A2"E7"AB|"A"B2 A4|A3:|
ABc|"D"d2 f2fd|"E7"f2 e2ed|"D"d2 c2cf|"A/C#"f2 e2 a2|"Bm7"a2 e2 ag|"C#m7"a2 e2 ag|"D"a2 b2bc|"D/E"e4 "E7"AB|
"A"c2 (3cde AB|"D"F2FA A2|"C#m7"E2EA A2|"Bm7"D4 ED|"A/C#"C2CD "D"(3EDC|"D/E"D2 A2"E7"AB|"A"B2 A4|A6|

